P3
8 8
255
255 255 255 255 255 255 255 255 255 255 255 255 255 255 255 255 255 255 255 255 255 255 255 255
255 255 255 255 255 255 255 255 255 255 255 255 255 255 255 255 255 255 255 255 255 255 255 255
255 255 255 255 255 255 255 255 255 255 255 255 255 255 255 230 30 30 230 30 30 255 255 255
255 255 255 255 255 255 255 255 255 255 255 255 255 255 255 230 30 30 230 30 30 255 255 255
255 255 255 255 255 255 255 255 255 255 255 255 255 255 255 230 30 30 230 30 30 255 255 255
255 255 255 255 255 255 30 90 230 30 90 230 255 255 255 230 30 30 230 30 30 255 255 255
255 255 255 255 255 255 30 90 230 30 90 230 255 255 255 230 30 30 230 30 30 255 255 255
20 20 20 20 20 20 20 20 20 20 20 20 20 20 20 20 20 20 20 20 20 20 20 20
